X: 1
T: Christine Morrison's Jig
C: John Campbell
R: jig
S: printed copy of unknown origin in Concord Slow Scottish Session collection
Z: 2015 John Chambers <jc:trillian.mit.edu>
M: 6/8
L: 1/8
K: G
g |\
d2B c2A | BGG GAB | c2E A2G | FDD D2g |\
d2B c2A | BGG GAB | c2E FED | G3 G2 :|
f |\
afd dfa | bgg gab | a2f g2e | fdd d2f |\
afd dfa | bgg gab | a2f ge^c | d3 d2 |]
f |\
afd dfa | bgg gab | a2f g2e | fdd def |\
gdB GBd | ecG EGB | AFD cAF | G3 G2 |]
